X:888
T:Safe Home
C:Jane Slemon, 2009
%%MIDI beat 100 95 80
S:Colin Hume's website,  colinhume.com  - chords can also be printed below the stave.
Q:1/4=120
%%MIDI chordname dim 0 3 6 9
M:3/4
R:Waltz
L:1/8
%%MIDI chordprog 46   Orchestral Harp
%%MIDI bassprog 43    Contrabass
% %MIDI chordprog 99   FX 4 (atmosphere)
%%MIDI gchord b
K:G
V:1
%%MIDI control 10 0   Left speaker
%%MIDI program 68     Oboe
"G"GBa2g2 | "B/F#"B^dg2f2 | "Cmaj7/E"ecG2d2 | "Cm/Eb"_ecG2Bc |\
"Gmaj7/D"B2A2G2 | "Em7/D"G3E FG | "Am7/C"A3G FE | "D7"D4F2 |
"G/D"FGA2B2 | "B/D#"Bc^d2f2 | "C/E"g2f2e2 | "Cm6/Eb"_e2c2BA |\
"G/D"B4AG | "D7/C"F2G2A2 | "D#dim"F2G2A2 | "Em"G4ed |
"C/E"c3G AB | "F#dim"c3A Bc | "Bm/F#"B3F AB | "Em7"B3G AB |\
"C/E"c3G AB | "Am/E"c3A Bc | "Bm/D"Bdf2d2 | "B7/D#"B^df2B2 |
"Em"g3e fg | "B/D#"gf^d2ba | "C"g2f2e2 | "Cm"_e3dc2 |\
"G"BG- GG AB | "G#dim"B^G- GG AB | "Am7"cB AG FE | "D7"F4z2 |]
V:2
%%MIDI program 46     Orchestral Harp
%%MIDI control 10 127   Right speaker
GBd2B2 | FB^d2B2 | EGC2B,2 | C2_E2GA |\
d2d2B2 | E2B2d2 | cd ee AG | F2FG Ac |
B2d2gf | ^d2F2BA | E2G2c2 | c2G2B,C |\
D4cB | A2B2c2 | ^d2c2F2 | E4z2 |
e3zz2 | f3za2 | d3zB2 | G3zE2 |
G3zE2 | A3zC2 | B,2E2F2 | B2^def2 |
e4B2 | ^d4f2 | e2d2c2 | c4G2 |
G2B2d2 | ^g2b2d2 | A2c2eg | f4z2 |]

